static/img/svg/snowflake.svg

<svg xmlns="http://www.w3.org/2000/svg" width="24" height="24" viewBox="0 0 24 24"><path d="M20.707 8.707l-1.414-1.414L15.586 11H13V8.414l3.707-3.707-1.414-1.414L13 5.586V2h-2v3.586L8.707 3.293 7.293 4.707 11 8.414V11H8.414L4.707 7.293 3.293 8.707 5.586 11H2v2h3.586l-2.293 2.293 1.414 1.414L8.414 13H11v2.586l-3.707 3.707 1.414 1.414L11 18.414V22h2v-3.586l2.293 2.293 1.414-1.414L13 15.586V13h2.586l3.707 3.707 1.414-1.414L18.414 13H22v-2h-3.586z"/></svg>

<svg xmlns="http://www.w3.org/2000/svg" width="24" height="24" viewBox="0 0 24 24"><path d="M20.707 8.707L19.293 7.293 15.586 11 13 11 13 8.414 16.707 4.707 15.293 3.293 13 5.586 13 2 11 2 11 5.586 8.707 3.293 7.293 4.707 11 8.414 11 11 8.414 11 4.707 7.293 3.293 8.707 5.586 11 2 11 2 13 5.586 13 3.293 15.293 4.707 16.707 8.414 13 11 13 11 15.586 7.293 19.293 8.707 20.707 11 18.414 11 22 13 22 13 18.414 15.293 20.707 16.707 19.293 13 15.586 13 13 15.586 13 19.293 16.707 20.707 15.293 18.414 13 22 13 22 11 18.414 11z"/></svg>
